!!!COM: Haydn, Franz Joseph
!!!OTL: String Quartet in G Major
!!!OPS: Opus 17
!!!ONM: No. 5
!!!OMD: Finale: Presto
!!!OMV: 4
!!!SCT: H III:29
!!!SCA: Thematisch-bibliographisches Werkevererzeichnis (A. van Hoboken)
!!!YOR: Trautwein Edition
!!!ENC: Frances Bennion
!!!CDT: 1732/3/31/-1809/5/31/
!!!CNT: Oesterreich
!!!YEC: Copyright (c) 1994, 2000 Center for Computer Assisted Research in the Humanities
!!!YEM: Rights to all derivative editions reserved.
!!!YEM: Refer to licensing agreement for further details.
!!!YEN: United States of America
**kern	**kern	**kern	**kern
*k[f#]	*k[f#]	*k[f#]	*k[f#]
*G:	*G:	*G:	*G:
*clefF4	*clefC3	*clefG	*clefG
*M2/4	*M2/4	*M2/4	*M2/4
*MM152	*MM152	*MM152	*MM152
4.r	4.r	4.r	4.r
8r	8r	8b	8dd
=1	=1	=1	=1
2r	2r	8a	8cc
.	.	8g	8b
.	.	8cc	8ee
.	.	8b	8dd
=2	=2	=2	=2
8G	8r	4b	4dd
8G	16f#	.	.
.	16g	.	.
8G	4G	8r	8r
8G	.	8ee	8gg
=3	=3	=3	=3
8G	2r	8ee	8gg
8G	.	8dd	8ff#
8G	.	8dd	8ff#
8G	.	8cc	8ee
=4	=4	=4	=4
8G	8r	8cc	8ee
8G	16f#	8b	8dd
.	16g	.	.
8G	4G	8r	8r
8G	.	8b	8dd
=5	=5	=5	=5
8G	2r	8a	8cc
8G	.	8g	8b
8G	.	8cc	8ee
8G	.	8b	8dd
=6	=6	=6	=6
8G	8r	4b	4dd
8G	16f#	.	.
.	16g	.	.
8G	4G	8r	8r
8G	.	8e	8cc
=7	=7	=7	=7
8G	2r	8e	8cc
8G	.	8d	8b
8G	.	8d	8b
8G	.	8c	8a
=8	=8	=8	=8
4G	8r	8c	8a
.	16f#	8B	8g
.	16g	.	.
4r	8G	8r	8r
.	8B	8d	8g
=9	=9	=9	=9
2r	8B	8d	8g
.	8A	8c	8f#
.	8A	8c	8f#
.	8c	8e	8a
=10	=10	=10	=10
4.r	8c	8e	8a
.	8B	8d	8g
.	8r	8r	8r
8G	8g	8g	8g
=11	=11	=11	=11
8F#	8d	8a	8cc
8F#	8d	16g	16b
.	.	16a	16cc
8F#	8d	8b	8dd
8F#	8d	8a	8cc
=12	=12	=12	=12
8G	4d	4a	4cc
8GG	.	.	.
4GG	8r	8g	8b
.	8B	8d	8g
=13	=13	=13	=13
2r	8B	8d	8g
.	8A	8c	8f#
.	8A	8c	8f#
.	8c	8e	8a
=14	=14	=14	=14
2r	8c	8e	8a
.	8B	8d	8g
.	4r	4r	8r
.	.	.	8cc
=15	=15	=15	=15
8F#	[2d	2a 2d	8aa
8F#	.	.	8cc
8F#	.	.	8cc
8F#	.	.	16b
.	.	.	16cc
=16	=16	=16	=16
4G	4d]	4b	16bb
.	.	.	16aa
.	.	.	16gg
.	.	.	16ff#
4B	4B	4dd	16gg
.	.	.	16ff#
.	.	.	16ee
.	.	.	16dd
=17	=17	=17	=17
4c	4c	4ee	16ee
.	.	.	16dd
.	.	.	16cc
.	.	.	16b
4r	4r	4r	16cc
.	.	.	16b
.	.	.	16a
.	.	.	16g
=18	=18	=18	=18
4r	4r	4r	8a
.	.	.	4cc
4D	4c	4A 4f#	.
.	.	.	8f#
=19	=19	=19	=19
4G	4B	4g 4B	4g
4r	8r	8r	4r
.	8B	8d	.
=20	=20	=20	=20
2r	8A	8c	[2gg
.	8G	8B	.
.	8c	8e	.
.	8B	8d	.
=21	=21	=21	=21
8r	4B	4.d	2gg_
16F#	.	.	.
16G	.	.	.
4GG	8r	.	.
.	8B	8d	.
=22	=22	=22	=22
2r	8c	8e	2gg_
.	8B	8d	.
.	8e	8g	.
.	8d	8f	.
=23	=23	=23	=23
8r	4c	4.e	2gg_
16F#	.	.	.
16G	.	.	.
4GG	8r	.	.
.	8c	8e	.
=24	=24	=24	=24
2r	8e	8g	2gg_
.	8c	8e	.
.	8B	8d	.
.	8A	8c	.
=25	=25	=25	=25
8r	4B	4d	4.gg]
16F#	.	.	.
16G	.	.	.
8GG	8r	4b	.
8G	16g	.	8bb
.	16f#	.	.
=26	=26	=26	=26
4A	4e	8b	8dd
.	.	8a	8cc
4F#	4d	8cc	8aa
.	.	8a	8cc
=27	=27	=27	=27
4G	4d	8a	8cc
.	.	8g	8b
4BB	4G	8r	8r
.	.	8d	8gg
=28	=28	=28	=28
4.C	4.G	4.e	8b
.	.	.	8a
.	.	.	8ee
8C#	8c#	8B	8g
=29	=29	=29	=29
8D	8d	8B	8g
8DD	8D	8A	8f#
4DD	4D	4r	8r
.	.	.	8a
=30	=30	=30	=30
8D	8f#	8a	2dd
8D	8f#	8a	.
8D	8f#	8a	.
8D	8f#	8a	.
=31	=31	=31	=31
8D	8f#	8a	8d
8D	8f#	8a	8fff#
8D	8f#	8a	8eee
8D	8f#	8a	8ddd
=32	=32	=32	=32
8E	8g	8a	8ddd
8E	8g	8a	8ccc#
8E	8g	8a	[4ccc#
8E	8g	8a	.
=33	=33	=33	=33
8E	8g	8a	4ccc#]
8E	8g	8a	.
8E	8g	8a	16ccc#
.	.	.	16ddd
8D	8f#	8a	16eee
.	.	.	16fff#
=34	=34	=34	=34
8C#	8e	8a	4ggg
8C#	8e	8a	.
8C#	8e	8a	8.eee
8C#	8e	8a	.
.	.	.	16ccc#
=35	=35	=35	=35
8C#	8e	8a	4aa
8C#	8e	8a	.
8C#	8e	8a	8.gg
8C#	8e	8a	.
.	.	.	32ff#
.	.	.	32gg
=36	=36	=36	=36
8D	4d	4a	4ff#
8d	.	.	.
4D	4r	4r	8r
.	.	.	8aa
=37	=37	=37	=37
4.r	4.r	4.r	8aaa
.	.	.	8aaa
.	.	.	8aaa
8F#	8dd	8a	8aaa
=38	=38	=38	=38
8G	2dd	8b	8aaa
8g	.	8bb	8bb
8g	.	8bb	8r
8g	.	8bb	8bb
=39	=39	=39	=39
8e	2ee	8gg	8ggg
8E	.	8g	8ggg
8r	.	8r	8ggg
8E	.	8g	8ggg
=40	=40	=40	=40
8F#	2cc#	8a	8ggg
8f#	.	8aa	8aa
8f#	.	8aa	8r
8f#	.	8aa	8aa
=41	=41	=41	=41
8d	2dd	8ff#	8fff#
8D	.	8f#	8fff#
8r	.	8r	8fff#
8D	.	8f#	8fff#
=42	=42	=42	=42
8E	2b	8g	8fff#
8e	.	8gg	8gg
8e	.	8gg	8r
8e	.	8gg	8gg
=43	=43	=43	=43
8c#	4cc#	8ee	8eee
8C#	.	8e	8eee
8r	4a	8r	8eee
8c#	.	8ee	8gg
=44	=44	=44	=44
8d	8a	8ff# 8dd	16ff#
.	.	.	16ddd
8d	8a	4ff# 4dd	16fff#
.	.	.	16ddd
8d	8a	.	16fff#
.	.	.	16ddd
8d	8a	[8ff# [8dd	16fff#
.	.	.	16ddd
=45	=45	=45	=45
8d	8a	8ff#] 8dd]	16ff#
.	.	.	16ddd
8d	8a	4dd 4ff#	16fff#
.	.	.	16ddd
8d	8a	.	16fff#
.	.	.	16ddd
8d	8a	[8dd 8ff#	16fff#
.	.	.	16ddd
=46	=46	=46	=46
8d	8a	8dd] 8ff	16ff
.	.	.	16ddd
8d	8a	4ff 4dd	16fff
.	.	.	16ddd
8d	8a	.	16fff
.	.	.	16ddd
8d	8a	[8ff [8dd	16fff
.	.	.	16ddd
=47	=47	=47	=47
8d	8a	8ff] 8dd]	16ff
.	.	.	16ddd
8d	8a	4ff 4dd	16fff
.	.	.	16ddd
8d	8a	.	16fff
.	.	.	16ddd
8d	8a	8dd 8ff	16fff
.	.	.	16ddd
=48	=48	=48	=48
8B-	8g#	2dd 2ff	8fff
8B-	8g#	.	4ddd
8B-	8g#	.	.
8B-	8g#	.	[8bb-
=49	=49	=49	=49
8B-	4g#	2d	8bb-]
8B-	.	.	4aa
8B-	4d	.	.
8B-	.	.	8gg#
=50	=50	=50	=50
8A	8e	8c#	8aa
8AA	8e	8c#	8a
8AA	8e	8c#	8a
8AA	8e	8c#	8a
=51	=51	=51	=51
4AA	8e	4.c#	4.a
.	8A	.	.
4r	8A	.	.
.	8A	8c#	8a
=52	=52	=52	=52
2r	[2A	8d	8b
.	.	8c#	8a
.	.	8e	8cc#
.	.	8d	8b
=53	=53	=53	=53
2r	2A_	8f#	8dd
.	.	8e	8cc#
.	.	8g	8ee
.	.	8f#	8dd
=54	=54	=54	=54
2r	4A]	8dd	8ff#
.	.	8cc#	8ee
.	4r	8ee	8gg
.	.	8ee	8gg
=55	=55	=55	=55
8r	8r	4.ee	4.gg
8A	8c#	.	.
8B	8d	.	.
8c#	8e	8a	8ee
=56	=56	=56	=56
4d	4d	4a	16ff#
.	.	.	16ddd
.	.	.	16dd
.	.	.	16bb
4r	4r	4r	16b
.	.	.	16gg
.	.	.	16g
.	.	.	16ee
=57	=57	=57	=57
8A	8f#	8dd	4a
8A	8f#	8dd	.
8A	8g	8cc#	4ee
8A	8g	8cc#	.
=58	=58	=58	=58
4D	4f#	4dd	16ff#
.	.	.	16ddd
.	.	.	16dd
.	.	.	16bb
4r	4r	4r	16b
.	.	.	16gg
.	.	.	16g
.	.	.	16ee
=59	=59	=59	=59
8A	8f#	8dd	4a
8A	8f#	8dd	.
8A	8g	8cc#	4ee
8A	8g	8cc#	.
=60	=60	=60	=60
8D	8f#	4dd	4dd
8D	8D	.	.
8D	8D	8r	8r
8D	8D	8f#	8a
=61	=61	=61	=61
8D	8D	8e	8g
8D	8D	8d	8f#
8D	8D	8g	8b
8D	8D	8f#	8a
=62	=62	=62	=62
4D	4D	4f#	4a
4r	4r	8r	8r
.	.	8ff#	8aa
=63	=63	=63	=63
2r	[2dd	8ee	8gg
.	.	8dd	8ff#
.	.	8gg	8bb
.	.	8ff#	8aa
=64	=64	=64	=64
8r	2dd_	4ff#	4aa
16c#	.	.	.
16d	.	.	.
4D	.	8r	8r
.	.	8bb	8ddd
=65	=65	=65	=65
2r	2dd_	8bb	8ddd
.	.	8aa	8ccc#
.	.	8aa	8ccc#
.	.	8gg	8bb
=66	=66	=66	=66
8r	2dd_	8gg	8bb
16c#	.	8ff#	8aa
16d	.	.	.
4D	.	8r	8r
.	.	8ff#	8aa
=67	=67	=67	=67
2r	2dd_	8ee	8gg
.	.	8dd	8ff#
.	.	8bb	8ddd
.	.	8aa	8ccc
=68	=68	=68	=68
8r	2dd_	4aa	4ccc
16c#	.	.	.
16d	.	.	.
4D	.	8r	8r
.	.	8ff#	8aa
=69	=69	=69	=69
2r	2dd]	8gg	8bb
.	.	8ff#	8aa
.	.	8bb	8ddd
.	.	8aa	8ccc
=70	=70	=70	=70
8r	4g	4gg	4bb
16F#	.	.	.
16G	.	.	.
4GG	8r	8r	8r
.	8g	8gg	8bb
=71	=71	=71	=71
8r	4b	4ff	4ddd
16F#	.	.	.
16G	.	.	.
4GG	8r	8r	8r
.	8b	8dd	8ff
=72	=72	=72	=72
8r	4cc	4cc	4ee
16B	.	.	.
16c	.	.	.
4C	8r	8r	8r
.	8b	8b	8dd
=73	=73	=73	=73
8r	4dd	4g#	4bb
16D#	.	.	.
16E	.	.	.
4EE	8r	8r	8r
.	8g#	8b	8dd
=74	=74	=74	=74
8r	4a	4a	4cc
16G#	.	.	.
16A	.	.	.
4AA	8r	8r	8r
.	8a	8cc	8ee
=75	=75	=75	=75
8r	4A	4ee	4ccc
16G#	.	.	.
16A	.	.	.
4AA	8r	8r	8r
.	8A#	8g	8ee
=76	=76	=76	=76
8r	4B	4f#	4dd#
16A#	.	.	.
16B	.	.	.
4BB	4r	4r	8r
.	.	.	8b
=77	=77	=77	=77
2r	4.r	4.r	8bb
.	.	.	8bb
.	.	.	8bb
.	8G	8B	8bb
=78	=78	=78	=78
2r	8A	8c	8bb
.	8a	8cc	8cc
.	8a	8cc	8r
.	8a	8cc	8cc
=79	=79	=79	=79
2r	8f#	8a	8aa
.	8F#	8A	8aa
.	8r	8r	8aa
.	8F#	8A	8aa
=80	=80	=80	=80
2r	8G	8B	8aa
.	8g	8b	8b
.	8g	8b	8r
.	8g	8b	8b
=81	=81	=81	=81
2r	8e	8g	8gg
.	8E	8G	8gg
.	8r	8r	8gg
.	8E	8G	8gg
=82	=82	=82	=82
2r	8F#	8A	8gg
.	8f#	8a	8a
.	8f#	8a	8r
.	8f#	8a	8a
=83	=83	=83	=83
2r	8d#	8f#	8ff#
.	8D#	8ff#	8ff#
.	8r	8r	8ff#
.	8d#	8f#	8a
=84	=84	=84	=84
8E	8e	8g	16g
.	.	.	16ee
8E	8e	8b	16gg
.	.	.	16ee
8E	8e	8b	16gg
.	.	.	16ee
8E	8e	8b	16gg
.	.	.	16ee
=85	=85	=85	=85
8D	8e	8b	16b
.	.	.	16ee
8D	8e	8b	16gg#
.	.	.	16ee
8D	8e	8b	16gg#
.	.	.	16ee
8D	8e	8b	16gg#
.	.	.	16ee
=86	=86	=86	=86
8C	8e	8a	16a
.	.	.	16ee
8C	8e	8a	16aa
.	.	.	16ee
8C	8e	8a	16aa
.	.	.	16ee
8C	8e	8a	16aa
.	.	.	16ee
=87	=87	=87	=87
8c	8d	8a	16a
.	.	.	16dd
8c	8d	8a	16ff#
.	.	.	16dd
8c	8d	8a	16ff#
.	.	.	16dd
8c	8d	8a	16ff#
.	.	.	16dd
=88	=88	=88	=88
8B	8d	8d	16b
.	.	.	16dd
8B	8d	8d	16gg
.	.	.	16dd
8B	8d	8d	16gg
.	.	.	16dd
8B	8d	8d	16gg
.	.	.	16dd
=89	=89	=89	=89
8F#	8cc	8d	16d
.	.	.	16ff#
8F#	8cc	8d	16aa
.	.	.	16ff#
8F#	8cc	8d	16aa
.	.	.	16ff#
8F#	8cc	8d	16aa
.	.	.	16ff#
=90	=90	=90	=90
8G	8b	8d	16d
.	.	.	16gg
8G	8b	8d	16bb
.	.	.	16gg
8G	8b	8d	16bb
.	.	.	16gg
8G	8b	8d	16bb
.	.	.	16gg
=91	=91	=91	=91
8E	8e	8g	16d
.	.	.	16ee
8E	8e	8g	16ccc#
.	.	.	16ee
8E	8e	8g	16ccc#
.	.	.	16ee
8E	8e	8g	16ccc#
.	.	.	16ee
=92	=92	=92	=92
4D	4d	4f#	4ddd
8.D	8.d	8.d	8.d
16D	16d	16d	16d
=93	=93	=93	=93
4D	4d	4d	4d
4r	4r	8r	8r
.	.	8b	8dd
=94	=94	=94	=94
2r	2r	8a	8cc
.	.	8g	8b
.	.	8cc	8ee
.	.	8b	8dd
=95	=95	=95	=95
8G	8r	4b	4dd
8G	16f#	.	.
.	16g	.	.
8G	4G	8r	8r
8G	.	8ee	8gg
=96	=96	=96	=96
8G	2r	8ee	8gg
8G	.	8dd	8ff#
8G	.	8dd	8ff#
8G	.	8cc	8ee
=97	=97	=97	=97
8G	8r	8cc	8ee
8G	16f#	8b	8dd
.	16g	.	.
8G	4G	8r	8r
8G	.	8b	8dd
=98	=98	=98	=98
8G	2r	8a	8cc
8G	.	8g	8b
8G	.	8cc	8ee
8G	.	8b	8dd
=99	=99	=99	=99
8G	8r	4b	4dd
8G	16f#	.	.
.	16g	.	.
8G	4G	8r	8r
8G	.	8e	8cc
=100	=100	=100	=100
8G	2r	8e	8cc
8G	.	8d	8b
8G	.	8d	8b
8G	.	8c	8a
=101	=101	=101	=101
4G	8r	8c	8a
.	16f#	8B	8g
.	16g	.	.
4r	8G	8r	8r
.	8B	8d	8g
=102	=102	=102	=102
2r	8B	8d	8g
.	8A	8c	8f#
.	8A	8c	8f#
.	8c	8e	8a
=103	=103	=103	=103
2r	8c	8e	8a
.	8B	8d	8g
.	4r	8r	8r
.	.	8g	8b
=104	=104	=104	=104
2r	2r	8g	8b
.	.	8f#	8a
.	.	8f#	8a
.	.	8a	8cc
=105	=105	=105	=105
2r	2r	8a	8cc
.	.	8g	8b
.	.	4r	8r
.	.	.	8dd
=106	=106	=106	=106
4.r	4.r	4.r	8ddd
.	.	.	8ddd
.	.	.	8ddd
8BB	8g	8d	8ddd
=107	=107	=107	=107
8C	2g	8e	8ddd
8c	.	8ee	8ee
8c	.	8ee	8r
8c	.	8ee	8ee
=108	=108	=108	=108
8A	2a	8cc	8ccc
8AA	.	8c	8ccc
8r	.	8r	8ccc
8AA	.	8c	8ccc
=109	=109	=109	=109
8BB	2f#	8d	8ccc
8B	.	8dd	8dd
8B	.	8dd	8r
8B	.	8dd	8dd
=110	=110	=110	=110
8G	2g	8b	8bb
8GG	.	8B	8bb
8r	.	8r	8bb
8GG	.	8B	8bb
=111	=111	=111	=111
8AA	2e	8c	8bb
8A	.	8cc	8cc
8A	.	8cc	8r
8A	.	8cc	8cc
=112	=112	=112	=112
8F#	4f#	8a	8aa
8FF#	.	8A	8aa
8r	4d	8r	8aa
8F#	.	8a	8cc
=113	=113	=113	=113
8G	8d	8b 8g	16b
.	.	.	16gg
8G	8d	4b 4g	16bb
.	.	.	16gg
8G	8d	.	16bb
.	.	.	16gg
8G	8d	[8g [8b	16bb
.	.	.	16gg
=114	=114	=114	=114
8G	8d	8g] 8b]	16b
.	.	.	16gg
8G	8d	4g 4b	16bb
.	.	.	16gg
8G	8d	.	16bb
.	.	.	16gg
8G	8d	8b [8g	16bb
.	.	.	16gg
=115	=115	=115	=115
8G	8d	8g] 8b-	16b-
.	.	.	16gg
8G	8d	4b- 4g	16bb-
.	.	.	16gg
8G	8d	.	16bb-
.	.	.	16gg
8G	8d	[8b- [8g	16bb-
.	.	.	16gg
=116	=116	=116	=116
8G	8d	8b-] 8g]	16b-
.	.	.	16gg
8G	8d	4b- 4g	16bb-
.	.	.	16gg
8G	8d	.	16bb-
.	.	.	16gg
8G	8d	8b- 8g	16bb-
.	.	.	16gg
=117	=117	=117	=117
8E-	8c#	2b- 2g	8bb-
8E-	8c#	.	4gg
8E-	8c#	.	.
8E-	8c#	.	[8ee-
=118	=118	=118	=118
8E-	4c#	2g	8ee-]
8E-	.	.	4dd
8E-	4G	.	.
8E-	.	.	8cc#
=119	=119	=119	=119
8D	8A	8f#	8dd
8DD	8F#	8d	8d
8DD	8F#	8d	8d
8DD	8F#	8d	8d
=120	=120	=120	=120
4DD	4.F#	[2d	4.d
4r	.	.	.
.	8F#	.	8d
=121	=121	=121	=121
2r	8G	2d_	8e
.	8F#	.	8d
.	8A	.	8f#
.	8G	.	8e
=122	=122	=122	=122
2r	8B	2d_	8g
.	8A	.	8f#
.	8c	.	8a
.	8B	.	8g
=123	=123	=123	=123
2r	8g	4d]	8b
.	8f#	.	8a
.	4r	8a	8cc
.	.	8a	8cc
=124	=124	=124	=124
8r	8r	4.a	4.cc
8D	8F#	.	.
8E	8G	.	.
8F#	8A	8d	8a
=125	=125	=125	=125
4G	4G	4d	16b
.	.	.	16gg
.	.	.	16g
.	.	.	16ee
4r	4r	4r	16e
.	.	.	16cc
.	.	.	16c
.	.	.	16a
=126	=126	=126	=126
8D	8B	8g	4d
8D	8B	8g	.
8D	8c	8f#	4a
8D	8c	8f#	.
=127	=127	=127	=127
4G	4B	4g	16b
.	.	.	16gg
.	.	.	16g
.	.	.	16ee
4r	4r	4r	16e
.	.	.	16cc
.	.	.	16c
.	.	.	16a
=128	=128	=128	=128
8D	8B	8g	4d
8D	8B	8g	.
8D	8c	8f#	4a
8D	8c	8f#	.
=129	=129	=129	=129
8GG	4B	4g	4g
8G	.	.	.
4r	4r	8r	8r
.	.	8b	8dd
=130	=130	=130	=130
2r	2r	8a	8cc
.	.	8g	8b
.	.	8cc	8ee
.	.	8b	8dd
=131	=131	=131	=131
8r	8r	4b	4dd
16F#	16f#	.	.
16G	16g	.	.
4GG	4G	8r	8r
.	.	8d	8b
=132	=132	=132	=132
2r	2r	8c	8a
.	.	8B	8g
.	.	8e	8cc
.	.	8d	8b
=133	=133	=133	=133
8r	8r	4d	4b
16F#	16f#	.	.
16G	16g	.	.
4GG	4G	8r	8r
.	.	8B	8d
=134	=134	=134	=134
2r	2r	8A	8c
.	.	8G	8B
.	.	8c	8e
.	.	8B	8d
=135	=135	=135	=135
4GG	4G	4B	4d
4r	4r	4r	4r
==	==	==	==
*-	*-	*-	*-
!!!RWG1: This file contains only pitch and duration data.
!!!RWG2: Transposing instruments are not transposed.
!!!RWG3: Spines may have incompatible meters.
!!!RWG4: Durations of rests and tied notes may be interpreted.
!!!RWG: Key is interpreted using the Humdrum key tool.
!!!GTL: 6 Divertimentos
!!!OPT: Recitative
!!!AFT: stage1
!!!END: 1997/04/15
!!!KEY: 291764035
!!!EMD: Converted from MuseData to Humdrum Dec 16, 2000, by Andreas Kornstaedt using muse2kern.
!!!EMD: Manual editing by Craig Sapp, Nov 2001
